X:1
T:By Grace I Will
T:By Grace I Will
T:William James Kirkpatrick
T:Eliza Edmunds Stites Hewitt, 1888
T:Public Domain Courtesy of the Cyber Hymnal™
C:William James Kirkpatrick
Z:Public Domain
Z:Courtesy of the Cyber Hymnal™
%%score ( 1 2 ) ( 3 4 )
L:1/8
Q:1/4=105
M:4/4
K:F
V:1 treble 
V:2 treble 
V:3 bass 
V:4 bass 
V:1
 CC | [CF]2 [CF]2 [CF]2 (EF) | [EG]2 [EG]2 [EG]2 [FA][GB] | [Ac]2 ([GB][FA]) [GB]2 [EG]2 | %4
w: 1.~Will you|go to Je- sus *|now, dear friend? He is|call- ing * you to-|
w: 2.~Would you|know the Sav- ior’s *|bound- less love, And His|mer- cy * rich and|
w: 3.~Will you|con- se- crate your *|life to Him, To be|ev- er * His a-|
w: 4.~Will you|fol- low where the *|Mas- ter leads, Choos- ing|on- ly * His re-|
 [CF]6 CC | [CF]2 [CF]2 [CF]2 (EF) | [EG]2 [EG]2 [EG]2 [FA][GB] | [Ac]2 ([GB][FA]) [GB]2 [EG]2 | %8
w: day: Will you|seek the bright and *|bet- ter land, By “the|true and * liv- ing|
w: free? Will you|seek the sav- ing, *|cleans- ing blood, That was|shed for * you and|
w: lone? And your|lov- ing ser- vice *|free- ly yield, To the|King up- * on His|
w: nown, Will you|dail- y bear the *|cross for Him, Till He|bids you * wear the|
 [CF]6 ||"^Refrain" ([FA][GB]) | [Ac]2 [Ac]2 [Ac]2 [FA][FA] | [GB][GB][GB][GB] [GB]2 [EG]2 | %12
w: Way”?||||
w: me?||||
w: throne.||||
w: crown?||||
 [FA]2 [Fc]>[Fc] [Ec]2 [D=B]2 | [Ec]6 [CF][CG] | [FA][FA][FA][FA] [FA]2 [Fc]>[Fc] | %15
w: |||
w: |||
w: |||
w: |||
 [Fc][FB][FB][FB] [FB]2 [Fd]2 | [Fc]2 [FB][FA] [EB]2 [EG]2 | [CF]6 |] %18
w: |||
w: |||
w: |||
w: |||
V:2
 CC | x6 C2 | x8 | x8 | x6 CC | x6 C2 | x8 | x8 | x6 || x2 | x8 | x8 | x8 | x8 | x8 | x8 | x8 | %17
 x6 |] %18
V:3
 [F,A,][F,A,] | [F,A,]2 [F,A,]2 [F,A,]2 (G,A,) | [C,C]2 [C,C]2 [C,C]2 [F,C][F,C] | %3
w: ~ ~|~ ~ ~ ~ *|~ ~ ~ ~ ~|
 [F,C]2 [F,C]2 [C,C]2 [C,B,]2 | [F,A,]6 [F,A,][F,A,] | [F,A,]2 [F,A,]2 [F,A,]2 (G,A,) | %6
w: ~ ~ ~ ~|~ ~ ~|~ ~ ~ ~ *|
 [C,C]2 [C,C]2 [C,C]2 [F,C][F,C] | [F,C]2 [F,C]2 [C,C]2 [C,B,]2 | [F,A,]6 || [F,C]2 | %10
w: ~ ~ ~ ~ ~|~ ~ ~ ~|~|I|
 [F,C]2 [F,C]2 [F,F]2 [F,C][F,C] | [C,C][C,C][C,C][C,C] [C,C]2 [C,C]2 | %12
w: will, I will! by the|grace of God, I will; I|
 [F,C]2 [F,A,]>[F,A,] G,2 G,2 | [C,G,]6 [F,A,][F,B,] | [F,C][F,C][F,C][F,C] [F,C]2 [A,,_E]>[A,,E] | %15
w: will go to Je- sus|now; I will|heed the Gos- pel call, For the|
 [B,,D][B,,D][B,,D][B,,D] [B,,D]2 [B,,B,]2 | [C,A,]2 [C,G,][C,F,] [C,G,]2 [C,B,]2 | [F,A,]6 |] %18
w: prom- ise is for all; I|will go to Je- sus|now.|
V:4
 x2 | x6 F,2 | x8 | x8 | x8 | x6 F,2 | x8 | x8 | x6 || x2 | x8 | x8 | x4 G,2 G,2 | x8 | x8 | x8 | %16
 x8 | x6 |] %18

